X: 2321
M: 6/8
L: 1/8
K: G
uB |\
aAA (A2B) |\
ud |\
gag gfe | aba agf | gfg aga | bee (e2f) |\
gag gfe | aba agf |
gfe dgd | BGG G2 ud |\
gag gfe | aba agf | gfg aga | bee (e2f) |\
gbg ege | ded ug2ue | dcB Adc | BGG G2 |]


